ui/StatusQ/src/assets/img/icons/stickers_sad_icon.svg

<svg fill="none" height="56" viewBox="0 0 56 56" width="56" xmlns="http://www.w3.org/2000/svg"><path clip-rule="evenodd" d="m28 49.875c10.4868 0 19.25-7.3792 21.3805-17.2284.3814-1.7631-1.3448-3.123-3.1419-2.9665-.5318.0463-1.07.0699-1.6136.0699-10.1482 0-18.375-8.2268-18.375-18.375 0-.5436.0236-1.0818.0699-1.61363.1565-1.79711-1.2034-3.52323-2.9665-3.14186-9.8492 2.13046-17.2284 10.89369-17.2284 21.38049 0 12.0812 9.7938 21.875 21.875 21.875zm16.625-21.875c1.4493 0 2.8544-.1853 4.1933-.5331.434-.1128.6426-.5939.4095-.9769-.5034-.827-1.2548-1.8116-2.2127-2.9292-1.9158-2.2351-4.4875-4.8083-7.1275-7.4484-2.6401-2.64-5.2133-5.2117-7.4484-7.12745-1.1176-.95796-2.1022-1.70939-2.9292-2.21276-.383-.23314-.8641-.02447-.9769.40951-.3478 1.33889-.5331 2.74396-.5331 4.1933 0 9.1817 7.4433 16.625 16.625 16.625zm-16.625 23.625c13.0477 0 23.625-10.5773 23.625-23.625 0-2.625-5.25-7.875-10.5-13.125s-10.5-10.5-13.125-10.5c-13.0477 0-23.625 10.5773-23.625 23.625s10.5773 23.625 23.625 23.625zm-8.1422-9.8706c2.0797-2.0083 4.9566-3.2544 8.1422-3.2544s6.0625 1.2461 8.1422 3.2544c.3476.3357.9015.326 1.2372-.0216s.326-.9015-.0216-1.2372c-2.399-2.3167-5.7092-3.7456-9.3578-3.7456s-6.9588 1.4289-9.3578 3.7456c-.3476.3357-.3573.8896-.0216 1.2372s.8896.3573 1.2372.0216z" fill="#939ba1" fill-rule="evenodd"/></svg>

<svg width="56" height="56" viewBox="0 0 56 56" fill="none" xmlns="http://www.w3.org/2000/svg">
<path fill-rule="evenodd" clip-rule="evenodd" d="M28 49.875C38.4868 49.875 47.25 42.4958 49.3805 32.6466C49.7619 30.8835 48.0357 29.5236 46.2386 29.6801C45.7068 29.7264 45.1686 29.75 44.625 29.75C34.4768 29.75 26.25 21.5232 26.25 11.375C26.25 10.8314 26.2736 10.2932 26.3199 9.76137C26.4764 7.96426 25.1165 6.23814 23.3534 6.61951C13.5042 8.74997 6.125 17.5132 6.125 28C6.125 40.0812 15.9188 49.875 28 49.875ZM44.625 28C46.0743 28 47.4794 27.8147 48.8183 27.4669C49.2523 27.3541 49.4609 26.873 49.2278 26.49C48.7244 25.663 47.973 24.6784 47.0151 23.5608C45.0993 21.3257 42.5276 18.7525 39.8876 16.1124C37.2475 13.4724 34.6743 10.9007 32.4392 8.98495C31.3216 8.02699 30.337 7.27556 29.51 6.77219C29.127 6.53905 28.6459 6.74772 28.5331 7.1817C28.1853 8.52059 28 9.92566 28 11.375C28 20.5567 35.4433 28 44.625 28ZM28 51.625C41.0477 51.625 51.625 41.0477 51.625 28C51.625 25.375 46.375 20.125 41.125 14.875C35.875 9.625 30.625 4.375 28 4.375C14.9523 4.375 4.375 14.9523 4.375 28C4.375 41.0477 14.9523 51.625 28 51.625ZM19.8578 41.7544C21.9375 39.7461 24.8144 38.5 28 38.5C31.1856 38.5 34.0625 39.7461 36.1422 41.7544C36.4898 42.0901 37.0437 42.0804 37.3794 41.7328C37.7151 41.3852 37.7054 40.8313 37.3578 40.4956C34.9588 38.1789 31.6486 36.75 28 36.75C24.3514 36.75 21.0412 38.1789 18.6422 40.4956C18.2946 40.8313 18.2849 41.3852 18.6206 41.7328C18.9563 42.0804 19.5102 42.0901 19.8578 41.7544Z" fill="#939BA1"/>
</svg>
